X:1
T:James Gibb editions
T:Bonjour mon coeur - Goudimel
T:#
%%score [ 1 2 3 4 ]
L:1/8
Q:1/4=240
M:3/2
K:F
V:1 treble nm="Soprano" snm="S"
V:2 treble nm="Alto" snm="A"
V:3 treble-8 nm="Tenor" snm="T"
V:4 bass nm="Bass" snm="B"
V:1
"^Claude Goudimel\n(1514-72)""^Pierre de Ronsard\n(1524-85)" A4 | A8"^Bonjour mon coeur" c4 | %2
w: Bon-|jour mon|
 B8 B4 | A8 G4 | F8 F4 | G8 F4 | F4 F4 G4 | A8 c4 | A8 A4 | G4 F8 | E8 F4 | A4 B4 c4- | c4 A4 d4- | %13
w: coeur, bon-|jour ma|dou- ce|vi- e,|Bon- jour mon|oeil, Bon-|jour ma|chère a-|mi- e!|Hé! Bon- jour|* ma tou\-|
 d2 c2 B4 A4 | A4 B4 G4 | A8 F4 | G8 G4 | A8 A4 | G8 G4 | F4 F8 | E8 A4 | A4 A8 | G8 B4 | A8 G4 | %24
w: * te bel- le,|Ma mi- gnar-|di- se,|bon- jour|Mes dé-|li- ces,|mon a-|mour, Mon|doux prin-|temps, ma|dou- ce|
 F8 c4 | B8 A4 | F4 F4 F4 | D8 G4 | F8 B4 | A8 G4 | F8 E4 | c4 c4 B4 | A8 G4 | d8 c4 | B8 A4 | %35
w: fleur nou-|vel- le,|Mon doux plai-|sir, ma|dou- ce|co- lom-|bel- le,|Mon pas- se-|reau, ma|gen- te|tour- te-|
 G8 G4 | A4 A4 A4 | G8 F4 | F4 E8 | F8 z4 | A4 A4 A4 | G8 F4 | F4 E8 | F12 |] %44
w: rel- le!|Bon- jour ma|dou- ce|re- bel-|le,|bon- jour ma|dou- ce|re- bel-|le.|
V:2
 F4 | F8 E4 | G8 F4 | F8 E4 | D8 D4 | C8 D4 | C4 D4 E4 | F8 G4 | F8 E4 | D8 C4 | C8 A,4 | %11
w: Bon-|jour mon|coeur, bon-|jour ma|dou- ce|vi- e,|Bon- jour mon|oeil, Bon-|jour ma|chère a-|mi- e!|
 F4 D4 C4 | C4 F6 E2 | D8 F4 | F4 F4 E4 | C8 C4 | D8 E4 | F8 F4 | D8 C4 | C4 B,8 | C8 C4 | C4 F8 | %22
w: Hé! Bon- jour|ma tou- te|bel- le,|Ma mi- gnar-|di- se,|bon- jour|Mes dé-|li- ces,|mon a-|mour, Mon|doux prin-|
 E8 D4 | F8 E4 | D8 C4 | D8 F4 | C4 C4 C4 | B,8 C4 | D8 F4 | F8 E4 | D8 C4 | E4 E4 E4 | F8 E4 | %33
w: temps, ma|dou- ce|fleur nou-|vel- le,|Mon doux plai-|sir, ma|dou- ce|co- lom-|bel- le,|Mon pas- se-|reau, ma|
 F8 C4 | D8 F4 | E8 E4 | F4 F4 F4 | E8 D4 | D4 C8 | C8 z4 | F4 F4 F4 | E8 D4 | D4 C8 | C12 |] %44
w: gen- te|tour- te-|rel- le!|Bon- jour ma|dou- ce|re- bel-|le,|bon- jour ma|dou- ce|re- bel-|le.|
V:3
 c4 | c8 c4 | d8 d4 | c8 c4 | A8 B4 | G8 A4 | A4 A4 B4 | c8 e4 | d8 c4 | B8 A4 | G8 F4 | %11
w: Bon-|jour mon|coeur, bon-|jour ma|dou- e|vi- e,|Bon- jour mon|oeil, bon-|jour ma|chère a-|mi- e!|
 F4 G4 A4- | A4 F4 B4- | B2 A2 G4 F4 | c4 d4 c4 | A8 c4 | B8 c4 | c8 d4 | B8 G4 | A4 F8 | G8 F4 | %21
w: Hé! Bon- jour|* ma tou\-|* te bel- le,|Ma mi- gnar-|di- se,|bon- jour|Mes dé-|li- ces,|mon a-|mour, Mon|
 F4 F8 | c8 B4 | F8 C4 | D8 A4 | G8 F4 | A4 A4 A4 | F8 G4 | A8 d4 | c8 B4 | A8 A4 | A4 A4 G4 | %32
w: doux prin-|temps, ma|dou- ce|fleur nou-|vel- le,|Mon doux plai-|sir, ma|dou- ce|co- lom-|bel- le,|Mon pas- se-|
 F8 c4 | B8 A4 | G8 F4 | c8 c4 | c4 c4 c4 | c8 A4 | B4 G8 | F8 z4 | c4 c4 c4 | c8 A4 | B4 G8 | %43
w: reau, ma|gen- te|tour- te-|rel- le!|Bon- jour ma|dou- ce|re- bel-|le,|Bon- jour ma|dou- ce|re- bel-|
 F12 |] %44
w: le.|
V:4
 F,4 | F,8 A,4 | G,8 B,4 | F,8 C,4 | D,8 B,,4 | E,8 D,4 | F,4 D,4 G,4 | F,8 C,4 | D,8 A,,4 | %9
w: Bon-|jour mon|coeur, bon-|jour ma|dou- ce|vi- e,|Bon- jour mon|oeil, bon-|jour ma|
 B,,8 F,,4 | C,8 F,,4 | z12 | z12 | z12 | F,4 B,,4 C,4 | F,8 A,4 | G,8 C,4 | F,8 D,4 | G,8 E,4 | %19
w: chère a-|mi- e!||||Ma mi- gnar-|di- se,|bon- jour|Mes dé-|li- ces,|
 F,4 D,8 | C,8 z4 | z12 | z12 | z12 | z12 | z12 | F,4 F,4 F,4 | B,,8 E,4 | D,8 B,,4 | F,8 G,4 | %30
w: mon a-|mour,||||||Mon doux plai-|sir, ma|dou- ce|co- lom-|
 D,8 A,,4 | z12 | z12 | z12 | z12 | z12 | F,4 F,4 F,4 | C,8 D,4 | B,,4 C,8 | F,,8 z4 | %40
w: bel- le,||||||Bon- jour ma|dou- ce|re- bel-|le,|
 F,4 F,4 F,4 | C,8 D,4 | B,,4 C,8 | F,,12 |] %44
w: Bon- jour ma|dou- ce|re- bel-|le,|

